assets/svg/avatar_archive.svg

<svg width="30" height="30" viewBox="0 0 30 30" fill="none" xmlns="http://www.w3.org/2000/svg">
<rect x="0.5" y="0.5" width="29" height="29" rx="9.5" fill="#F5F7FF"/>
<rect x="0.5" y="0.5" width="29" height="29" rx="9.5" stroke="#E1EAF8"/>
<path d="M20.6667 11.6667V15.6667C20.6667 18.1808 20.6667 19.4379 19.8856 20.219C19.1046 21 17.8475 21 15.3333 21H14.6667C12.1525 21 10.8954 21 10.1144 20.219C9.33333 19.4379 9.33333 18.1808 9.33333 15.6667V11.6667M14 16H16C16.3106 16 16.4659 16 16.5885 15.9493C16.7518 15.8816 16.8816 15.7518 16.9492 15.5885C17 15.4659 17 15.3106 17 15C17 14.6894 17 14.5341 16.9492 14.4115C16.8816 14.2482 16.7518 14.1184 16.5885 14.0507C16.4659 14 16.3106 14 16 14H14C13.6894 14 13.5341 14 13.4115 14.0507C13.2482 14.1184 13.1184 14.2482 13.0507 14.4115C13 14.5341 13 14.6894 13 15C13 15.3106 13 15.4659 13.0507 15.5885C13.1184 15.7518 13.2482 15.8816 13.4115 15.9493C13.5341 16 13.6894 16 14 16ZM9.66666 11.6667H20.3333C20.9619 11.6667 21.2761 11.6667 21.4714 11.4714C21.6667 11.2761 21.6667 10.9619 21.6667 10.3333C21.6667 9.70479 21.6667 9.39052 21.4714 9.19526C21.2761 9 20.9619 9 20.3333 9H9.66666C9.03812 9 8.72385 9 8.52859 9.19526C8.33333 9.39052 8.33333 9.70479 8.33333 10.3333C8.33333 10.9619 8.33333 11.2761 8.52859 11.4714C8.72385 11.6667 9.03812 11.6667 9.66666 11.6667Z" stroke="#0166FF" stroke-linecap="round"/>
</svg>

<svg xmlns="http://www.w3.org/2000/svg" width="30" height="30" fill="none"><rect width="29" height="29" x=".5" y=".5" fill="#F5F7FF" rx="9.5"/><rect width="29" height="29" x=".5" y=".5" stroke="#E1EAF8" rx="9.5"/><path stroke="#0166FF" stroke-linecap="round" d="M20.667 11.667v4c0 2.514 0 3.77-.781 4.552S17.848 21 15.333 21h-.666c-2.514 0-3.772 0-4.553-.781-.78-.781-.78-2.038-.78-4.552v-4M14 16h2c.31 0 .466 0 .588-.05a.67.67 0 0 0 .361-.361C17 15.466 17 15.31 17 15s0-.466-.05-.588a.67.67 0 0 0-.361-.361C16.466 14 16.31 14 16 14h-2c-.31 0-.466 0-.588.05a.67.67 0 0 0-.361.361C13 14.535 13 14.69 13 15s0 .466.05.588a.67.67 0 0 0 .361.361c.123.051.278.051.589.051Zm-4.333-4.333h10.666c.629 0 .943 0 1.138-.196.196-.195.196-.51.196-1.138s0-.942-.196-1.138C21.276 9 20.961 9 20.333 9H9.667c-.629 0-.943 0-1.138.195-.196.196-.196.51-.196 1.138 0 .629 0 .943.196 1.138.195.196.51.196 1.138.196Z"/></svg>
